; generated by PrusaSlicer 2.4.0+arm64 on 2022-11-07 at 04:49:41 UTC

; 

; external perimeters extrusion width = 0.45mm
; perimeters extrusion width = 0.45mm
; infill extrusion width = 0.45mm
; solid infill extrusion width = 0.45mm
; top infill extrusion width = 0.40mm
; support material extrusion width = 0.35mm
; first layer extrusion width = 0.42mm

M73 P0 R27
M73 Q0 S27
M107
;TYPE:Custom
M115 U3.7.1 ; tell printer latest fw version
G90 ; use absolute coordinates
M83 ; extruder relative mode
M104 S205 ; set extruder temp
M140 S60 ; set bed temp
M190 S60 ; wait for bed temp
M109 S205 ; wait for extruder temp
G28 W ; home all without mesh bed level
G80 ; mesh bed leveling
G1 Y-3.0 F1000.0 ; go outside print area
G92 E0.0
G1 X60.0 E9.0 F1000.0 ; intro line
G1 X100.0 E12.5 F1000.0 ; intro line
G92 E0.0
M221 S95
G21 ; set units to millimeters
G90 ; use absolute coordinates
M83 ; use relative distances for extrusion
M900 K30 ; Filament gcode
M107
;LAYER_CHANGE
;Z:0.2
;HEIGHT:0.2
;BEFORE_LAYER_CHANGE
G92 E0.0
;0.2


G1 E-.8 F2100
G1 Z.2 F10800
;AFTER_LAYER_CHANGE
;0.2
G1 X114.758 Y95.702
G1 E.8 F2100
M204 S1000
;TYPE:Skirt/Brim
;WIDTH:0.42
G1 F1200
G1 X115.825 Y94.689 E.04612
G1 X117.12 Y94.366 E.04186
G1 X132.88 Y94.366 E.49416
G1 X134.298 Y94.758 E.04612
G1 X135.311 Y95.825 E.04612
G1 X135.634 Y97.12 E.04186
G1 X135.634 Y112.88 E.49416
G1 X135.242 Y114.298 E.04612
G1 X134.175 Y115.311 E.04612
G1 X132.88 Y115.634 E.04186
G1 X117.12 Y115.634 E.49416
G1 X115.702 Y115.242 E.04612
G1 X114.689 Y114.175 E.04612
G1 X114.366 Y112.88 E.04186
G1 X114.366 Y97.12 E.49416
G1 X114.742 Y95.76 E.04424
G1 X115.116 Y95.872 F10800
G1 F1200
G1 X115.134 Y95.813 E.00195
G1 X116.18 Y94.936 E.04278
G1 X117.12 Y94.743 E.03008
G1 X132.88 Y94.743 E.49416
G1 X134.187 Y95.134 E.04278
G1 X135.064 Y96.18 E.04278
G1 X135.257 Y97.12 E.03008
G1 X135.257 Y112.88 E.49416
G1 X134.866 Y114.187 E.04278
G1 X133.82 Y115.064 E.04278
G1 X132.88 Y115.257 E.03008
G1 X117.12 Y115.257 E.49416
G1 X115.813 Y114.866 E.04278
G1 X114.936 Y113.82 E.04278
G1 X114.743 Y112.88 E.03008
G1 X114.743 Y97.12 E.49416
G1 X115.099 Y95.93 E.03895
;WIPE_START
G1 F8640
G1 X115.134 Y95.813 E-.0282
G1 X116.18 Y94.936 E-.31505
G1 X117.12 Y94.743 E-.22155
G1 X117.965 Y94.743 E-.1952
;WIPE_END
G1 E-.04 F2100
G1 X118.307 Y97.907 F10800
G1 E.8 F2100
;TYPE:Perimeter
G1 F1200
G1 X132.093 Y97.907 E.43226
G1 X132.093 Y112.093 E.4448
G1 X117.907 Y112.093 E.4448
M73 P1 R27
M73 Q1 S27
G1 X117.907 Y97.907 E.4448
G1 X118.247 Y97.907 E.01066
G1 X117.53 Y97.53 F10800
;TYPE:External perimeter
G1 F1200
G1 X132.47 Y97.53 E.46845
G1 X132.47 Y112.47 E.46845
G1 X117.53 Y112.47 E.46845
G1 X117.53 Y97.59 E.46657
G1 X117.916 Y97.633 F10800
;WIPE_START
G1 F8640
G1 X120.821 Y97.577 E-.76
;WIPE_END
G1 E-.04 F2100
G1 X131.21 Y98.02 F10800
G1 E.8 F2100
;TYPE:Solid infill
;WIDTH:0.42361
G1 F1200
G1 X131.81 Y98.62 E.02687
G1 X131.81 Y99.159 E.01704
G1 X130.841 Y98.19 E.04338
G1 X130.303 Y98.19 E.01704
G1 X131.81 Y99.697 E.06748
G1 X131.81 Y100.235 E.01704
G1 X129.765 Y98.19 E.09158
G1 X129.226 Y98.19 E.01704
G1 X131.81 Y100.774 E.11568
G1 X131.81 Y101.312 E.01704
G1 X128.688 Y98.19 E.13978
G1 X128.15 Y98.19 E.01704
G1 X131.81 Y101.85 E.16388
G1 X131.81 Y102.389 E.01704
G1 X127.611 Y98.19 E.18798
G1 X127.073 Y98.19 E.01704
G1 X131.81 Y102.927 E.21208
G1 X131.81 Y103.466 E.01704
G1 X126.534 Y98.19 E.23618
G1 X125.996 Y98.19 E.01704
G1 X131.81 Y104.004 E.26029
G1 X131.81 Y104.542 E.01704
G1 X125.458 Y98.19 E.28439
G1 X124.919 Y98.19 E.01704
G1 X131.81 Y105.081 E.30849
G1 X131.81 Y105.619 E.01704
G1 X124.381 Y98.19 E.33259
G1 X123.843 Y98.19 E.01704
G1 X131.81 Y106.157 E.35669
G1 X131.81 Y106.696 E.01704
G1 X123.304 Y98.19 E.38079
G1 X122.766 Y98.19 E.01704
G1 X131.81 Y107.234 E.40489
G1 X131.81 Y107.773 E.01704
G1 X122.227 Y98.19 E.42899
G1 X121.689 Y98.19 E.01704
G1 X131.81 Y108.311 E.45309
G1 X131.81 Y108.849 E.01704
G1 X121.151 Y98.19 E.4772
G1 X120.612 Y98.19 E.01704
G1 X131.81 Y109.388 E.5013
G1 X131.81 Y109.926 E.01704
G1 X120.074 Y98.19 E.5254
G1 X119.536 Y98.19 E.01704
G1 X131.81 Y110.464 E.5495
G1 X131.81 Y111.003 E.01704
G1 X118.997 Y98.19 E.5736
G1 X118.459 Y98.19 E.01704
M73 P2 R26
M73 Q2 S27
G1 X131.81 Y111.541 E.5977
G1 X131.81 Y111.81 E.00852
M73 Q2 S26
G1 X131.541 Y111.81 E.00852
G1 X118.19 Y98.459 E.5977
G1 X118.19 Y98.997 E.01704
G1 X131.003 Y111.81 E.5736
G1 X130.464 Y111.81 E.01704
G1 X118.19 Y99.536 E.5495
G1 X118.19 Y100.074 E.01704
G1 X129.926 Y111.81 E.52539
G1 X129.388 Y111.81 E.01704
G1 X118.19 Y100.612 E.50129
G1 X118.19 Y101.151 E.01704
G1 X128.849 Y111.81 E.47719
G1 X128.311 Y111.81 E.01704
G1 X118.19 Y101.689 E.45309
G1 X118.19 Y102.227 E.01704
G1 X127.773 Y111.81 E.42899
G1 X127.234 Y111.81 E.01704
G1 X118.19 Y102.766 E.40489
G1 X118.19 Y103.304 E.01704
G1 X126.696 Y111.81 E.38079
G1 X126.157 Y111.81 E.01704
G1 X118.19 Y103.843 E.35669
G1 X118.19 Y104.381 E.01704
G1 X125.619 Y111.81 E.33259
G1 X125.081 Y111.81 E.01704
G1 X118.19 Y104.919 E.30848
G1 X118.19 Y105.458 E.01704
G1 X124.542 Y111.81 E.28438
G1 X124.004 Y111.81 E.01704
G1 X118.19 Y105.996 E.26028
G1 X118.19 Y106.535 E.01704
G1 X123.466 Y111.81 E.23618
G1 X122.927 Y111.81 E.01704
G1 X118.19 Y107.073 E.21208
G1 X118.19 Y107.611 E.01704
G1 X122.389 Y111.81 E.18798
G1 X121.85 Y111.81 E.01704
G1 X118.19 Y108.15 E.16388
G1 X118.19 Y108.688 E.01704
G1 X121.312 Y111.81 E.13978
G1 X120.774 Y111.81 E.01704
G1 X118.19 Y109.226 E.11568
G1 X118.19 Y109.765 E.01704
G1 X120.235 Y111.81 E.09157
G1 X119.697 Y111.81 E.01704
G1 X118.19 Y110.303 E.06747
G1 X118.19 Y110.842 E.01704
G1 X119.158 Y111.81 E.04337
G1 X118.62 Y111.81 E.01704
G1 X118.02 Y111.21 E.02687
M106 S255
;LAYER_CHANGE
;Z:0.35
;HEIGHT:0.15
;BEFORE_LAYER_CHANGE
G92 E0.0
;0.35


;WIPE_START
G1 F8640
G1 X118.62 Y111.81 E-.19598
G1 X119.158 Y111.81 E-.12431
G1 X118.19 Y110.842 E-.31638
G1 X118.19 Y110.307 E-.12333
;WIPE_END
G1 E-.04 F2100
G1 Z.35 F10800
;AFTER_LAYER_CHANGE
;0.35
G1 X117.763 Y111.837
G1 E.8 F2100
M204 S800
;TYPE:Perimeter
;WIDTH:0.45
G1 F1875
G1 X117.763 Y97.763 E.36673
G1 X132.237 Y97.763 E.37715
G1 X132.237 Y112.237 E.37715
G1 X117.763 Y112.237 E.37715
G1 X117.763 Y111.897 E.00886
M204 S1000
M73 P3 R26
M73 Q3 S26
G1 X117.345 Y112.655 F10800
M204 S800
;TYPE:External perimeter
G1 F1500
G1 X117.345 Y97.345 E.39893
G1 X132.655 Y97.345 E.39893
G1 X132.655 Y112.655 E.39893
G1 X117.405 Y112.655 E.39736
M204 S1000
G1 X117.448 Y112.269 F10800
;WIPE_START
G1 F8640
G1 X117.392 Y109.364 E-.76
;WIPE_END
G1 E-.04 F2100
G1 X132.112 Y111.262 F10800
G1 E.8 F2100
;TYPE:Solid infill
;WIDTH:0.452505
G1 F1875
G1 X131.45 Y111.924 E.02454
G1 X130.856 Y111.924 E.01558
G1 X131.924 Y110.856 E.0396
G1 X131.924 Y110.261 E.01558
G1 X130.261 Y111.924 E.06164
G1 X129.667 Y111.924 E.01558
G1 X131.924 Y109.667 E.08367
G1 X131.924 Y109.073 E.01558
G1 X129.073 Y111.924 E.10571
G1 X128.478 Y111.924 E.01558
G1 X131.924 Y108.478 E.12774
G1 X131.924 Y107.884 E.01558
G1 X127.884 Y111.924 E.14977
G1 X127.289 Y111.924 E.01558
G1 X131.924 Y107.289 E.17181
G1 X131.924 Y106.695 E.01558
G1 X126.695 Y111.924 E.19384
G1 X126.1 Y111.924 E.01558
G1 X131.924 Y106.1 E.21588
G1 X131.924 Y105.506 E.01558
G1 X125.506 Y111.924 E.23791
G1 X124.912 Y111.924 E.01558
G1 X131.924 Y104.912 E.25995
G1 X131.924 Y104.317 E.01558
G1 X124.317 Y111.924 E.28198
G1 X123.723 Y111.924 E.01558
G1 X131.924 Y103.723 E.30402
G1 X131.924 Y103.128 E.01558
G1 X123.128 Y111.924 E.32605
G1 X122.534 Y111.924 E.01558
G1 X131.924 Y102.534 E.34809
G1 X131.924 Y101.94 E.01558
G1 X121.94 Y111.924 E.37012
G1 X121.345 Y111.924 E.01558
G1 X131.924 Y101.345 E.39215
G1 X131.924 Y100.751 E.01558
G1 X120.751 Y111.924 E.41419
G1 X120.156 Y111.924 E.01558
G1 X131.924 Y100.156 E.43622
G1 X131.924 Y99.562 E.01558
G1 X119.562 Y111.924 E.45826
G1 X118.967 Y111.924 E.01558
G1 X131.924 Y98.967 E.48029
G1 X131.924 Y98.373 E.01558
G1 X118.373 Y111.924 E.50233
G1 X118.076 Y111.924 E.00779
G1 X118.076 Y111.627 E.00779
G1 X131.627 Y98.076 E.50232
G1 X131.032 Y98.076 E.01558
G1 X118.076 Y111.032 E.48029
G1 X118.076 Y110.438 E.01558
G1 X130.438 Y98.076 E.45826
G1 X129.844 Y98.076 E.01558
G1 X118.076 Y109.844 E.43622
G1 X118.076 Y109.249 E.01558
G1 X129.249 Y98.076 E.41419
G1 X128.655 Y98.076 E.01558
G1 X118.076 Y108.655 E.39215
G1 X118.076 Y108.06 E.01558
G1 X128.06 Y98.076 E.37012
G1 X127.466 Y98.076 E.01558
G1 X118.076 Y107.466 E.34808
G1 X118.076 Y106.872 E.01558
G1 X126.872 Y98.076 E.32605
G1 X126.277 Y98.076 E.01558
G1 X118.076 Y106.277 E.30401
G1 X118.076 Y105.683 E.01558
M73 P4 R26
M73 Q4 S26
G1 X125.683 Y98.076 E.28198
G1 X125.088 Y98.076 E.01558
G1 X118.076 Y105.088 E.25994
G1 X118.076 Y104.494 E.01558
G1 X124.494 Y98.076 E.23791
G1 X123.899 Y98.076 E.01558
G1 X118.076 Y103.899 E.21587
G1 X118.076 Y103.305 E.01558
G1 X123.305 Y98.076 E.19384
G1 X122.711 Y98.076 E.01558
G1 X118.076 Y102.711 E.17181
G1 X118.076 Y102.116 E.01558
G1 X122.116 Y98.076 E.14977
G1 X121.522 Y98.076 E.01558
G1 X118.076 Y101.522 E.12774
G1 X118.076 Y100.927 E.01558
G1 X120.927 Y98.076 E.1057
G1 X120.333 Y98.076 E.01558
G1 X118.076 Y100.333 E.08367
G1 X118.076 Y99.739 E.01558
G1 X119.739 Y98.076 E.06163
G1 X119.144 Y98.076 E.01558
G1 X118.076 Y99.144 E.0396
G1 X118.076 Y98.55 E.01558
G1 X118.738 Y97.888 E.02453
;LAYER_CHANGE
;Z:0.5
;HEIGHT:0.15
;BEFORE_LAYER_CHANGE
G92 E0.0
;0.5


;WIPE_START
G1 F8640
G1 X118.076 Y98.55 E-.21611
G1 X118.076 Y99.144 E-.13725
G1 X119.144 Y98.076 E-.34882
G1 X119.395 Y98.076 E-.05781
;WIPE_END
G1 E-.04 F2100
G1 Z.5 F10800
;AFTER_LAYER_CHANGE
;0.5
G1 X118.163 Y97.763
G1 E.8 F2100
M204 S800
;TYPE:Perimeter
;WIDTH:0.45
G1 F1872
G1 X132.237 Y97.763 E.36673
G1 X132.237 Y112.237 E.37715
G1 X117.763 Y112.237 E.37715
G1 X117.763 Y97.763 E.37715
G1 X118.103 Y97.763 E.00886
M204 S1000
G1 X117.345 Y97.345 F10800
M204 S800
;TYPE:External perimeter
G1 F1500
G1 X132.655 Y97.345 E.39893
G1 X132.655 Y112.655 E.39893
G1 X117.345 Y112.655 E.39893
G1 X117.345 Y97.405 E.39736
M204 S1000
G1 X117.731 Y97.448 F10800
;WIPE_START
G1 F8640
G1 X120.636 Y97.392 E-.76
;WIPE_END
G1 E-.04 F2100
G1 X131.262 Y97.888 F10800
G1 E.8 F2100
;TYPE:Solid infill
;WIDTH:0.452505
G1 F1872
G1 X131.924 Y98.55 E.02454
G1 X131.924 Y99.144 E.01558
G1 X130.856 Y98.076 E.0396
G1 X130.261 Y98.076 E.01558
G1 X131.924 Y99.739 E.06164
G1 X131.924 Y100.333 E.01558
G1 X129.667 Y98.076 E.08367
G1 X129.073 Y98.076 E.01558
G1 X131.924 Y100.927 E.10571
G1 X131.924 Y101.522 E.01558
G1 X128.478 Y98.076 E.12774
G1 X127.884 Y98.076 E.01558
G1 X131.924 Y102.116 E.14977
G1 X131.924 Y102.711 E.01558
G1 X127.289 Y98.076 E.17181
G1 X126.695 Y98.076 E.01558
G1 X131.924 Y103.305 E.19384
G1 X131.924 Y103.9 E.01558
G1 X126.1 Y98.076 E.21588
G1 X125.506 Y98.076 E.01558
G1 X131.924 Y104.494 E.23791
G1 X131.924 Y105.088 E.01558
G1 X124.912 Y98.076 E.25995
G1 X124.317 Y98.076 E.01558
G1 X131.924 Y105.683 E.28198
G1 X131.924 Y106.277 E.01558
G1 X123.723 Y98.076 E.30402
G1 X123.128 Y98.076 E.01558
G1 X131.924 Y106.872 E.32605
G1 X131.924 Y107.466 E.01558
G1 X122.534 Y98.076 E.34809
G1 X121.94 Y98.076 E.01558
G1 X131.924 Y108.06 E.37012
G1 X131.924 Y108.655 E.01558
G1 X121.345 Y98.076 E.39215
G1 X120.751 Y98.076 E.01558
G1 X131.924 Y109.249 E.41419
G1 X131.924 Y109.844 E.01558
G1 X120.156 Y98.076 E.43622
G1 X119.562 Y98.076 E.01558
G1 X131.924 Y110.438 E.45826
G1 X131.924 Y111.033 E.01558
G1 X118.967 Y98.076 E.48029
G1 X118.373 Y98.076 E.01558
G1 X131.924 Y111.627 E.50233
G1 X131.924 Y111.924 E.00779
M73 Q5 S26
G1 X131.627 Y111.924 E.00779
M73 P5 R26
G1 X118.076 Y98.373 E.50232
G1 X118.076 Y98.968 E.01558
G1 X131.032 Y111.924 E.48029
G1 X130.438 Y111.924 E.01558
G1 X118.076 Y99.562 E.45826
G1 X118.076 Y100.156 E.01558
G1 X129.844 Y111.924 E.43622
G1 X129.249 Y111.924 E.01558
G1 X118.076 Y100.751 E.41419
G1 X118.076 Y101.345 E.01558
G1 X128.655 Y111.924 E.39215
G1 X128.06 Y111.924 E.01558
G1 X118.076 Y101.94 E.37012
G1 X118.076 Y102.534 E.01558
G1 X127.466 Y111.924 E.34808
G1 X126.872 Y111.924 E.01558
G1 X118.076 Y103.128 E.32605
G1 X118.076 Y103.723 E.01558
G1 X126.277 Y111.924 E.30401
G1 X125.683 Y111.924 E.01558
G1 X118.076 Y104.317 E.28198
G1 X118.076 Y104.912 E.01558
G1 X125.088 Y111.924 E.25994
G1 X124.494 Y111.924 E.01558
G1 X118.076 Y105.506 E.23791
G1 X118.076 Y106.101 E.01558
G1 X123.899 Y111.924 E.21587
G1 X123.305 Y111.924 E.01558
G1 X118.076 Y106.695 E.19384
G1 X118.076 Y107.289 E.01558
G1 X122.711 Y111.924 E.17181
G1 X122.116 Y111.924 E.01558
G1 X118.076 Y107.884 E.14977
G1 X118.076 Y108.478 E.01558
G1 X121.522 Y111.924 E.12774
G1 X120.927 Y111.924 E.01558
G1 X118.076 Y109.073 E.1057
G1 X118.076 Y109.667 E.01558
G1 X120.333 Y111.924 E.08367
G1 X119.739 Y111.924 E.01558
G1 X118.076 Y110.261 E.06163
G1 X118.076 Y110.856 E.01558
G1 X119.144 Y111.924 E.0396
G1 X118.55 Y111.924 E.01558
G1 X117.888 Y111.262 E.02453
;LAYER_CHANGE
;Z:0.65
;HEIGHT:0.15
;BEFORE_LAYER_CHANGE
G92 E0.0
;0.65


;WIPE_START
G1 F8640
G1 X118.55 Y111.924 E-.21611
G1 X119.144 Y111.924 E-.13725
G1 X118.076 Y110.856 E-.34882
G1 X118.076 Y110.605 E-.05781
;WIPE_END
G1 E-.04 F2100
G1 Z.65 F10800
;AFTER_LAYER_CHANGE
;0.65
G1 X117.763 Y111.837
G1 E.8 F2100
M204 S800
;TYPE:Perimeter
;WIDTH:0.45
G1 F900
G1 X117.763 Y97.763 E.36673
G1 X132.237 Y97.763 E.37715
G1 X132.237 Y112.237 E.37715
M73 P5 R25
G1 X117.763 Y112.237 E.37715
G1 X117.763 Y111.897 E.00886
M204 S1000
M73 Q5 S25
G1 X117.345 Y112.655 F10800
M204 S800
;TYPE:External perimeter
G1 F900
G1 X117.345 Y97.345 E.39893
G1 X132.655 Y97.345 E.39893
G1 X132.655 Y112.655 E.39893
G1 X117.405 Y112.655 E.39736
M204 S1000
G1 X117.448 Y112.269 F10800
;WIPE_START
M73 P6 R25
M73 Q6 S25
G1 F8640
G1 X117.392 Y109.364 E-.76
;WIPE_END
G1 E-.04 F2100
G1 X129.705 Y112.112 F10800
G1 E.8 F2100
;TYPE:Internal infill
G1 F900
G1 X131.924 Y109.893 E.08176
G1 X131.924 Y105.954 E.10264
G1 X125.954 Y111.924 E.21998
G1 X122.015 Y111.924 E.10264
G1 X131.924 Y102.015 E.36513
G1 X131.924 Y98.076 E.10264
G1 X118.076 Y111.924 E.51028
G1 X118.076 Y107.985 E.10264
G1 X127.985 Y98.076 E.36513
G1 X124.046 Y98.076 E.10264
G1 X118.076 Y104.046 E.21998
G1 X118.076 Y100.107 E.10264
G1 X120.295 Y97.888 E.08176
;LAYER_CHANGE
;Z:0.8
;HEIGHT:0.15
;BEFORE_LAYER_CHANGE
G92 E0.0
;0.8


;WIPE_START
G1 F8640
G1 X118.076 Y100.107 E-.72453
G1 X118.076 Y100.26 E-.03547
;WIPE_END
G1 E-.04 F2100
G1 Z.8 F10800
;AFTER_LAYER_CHANGE
;0.8
G1 X118.163 Y97.763
G1 E.8 F2100
M204 S800
;TYPE:Perimeter
G1 F900
G1 X132.237 Y97.763 E.36673
G1 X132.237 Y112.237 E.37715
G1 X117.763 Y112.237 E.37715
G1 X117.763 Y97.763 E.37715
G1 X118.103 Y97.763 E.00886
M204 S1000
G1 X117.345 Y97.345 F10800
M204 S800
;TYPE:External perimeter
G1 F900
G1 X132.655 Y97.345 E.39893
G1 X132.655 Y112.655 E.39893
G1 X117.345 Y112.655 E.39893
G1 X117.345 Y97.405 E.39736
M204 S1000
G1 X117.731 Y97.448 F10800
;WIPE_START
G1 F8640
G1 X120.636 Y97.392 E-.76
;WIPE_END
G1 E-.04 F2100
G1 X117.888 Y109.705 F10800
G1 E.8 F2100
;TYPE:Internal infill
G1 F900
G1 X120.107 Y111.924 E.08176
G1 X124.046 Y111.924 E.10264
G1 X118.076 Y105.954 E.21998
G1 X118.076 Y102.015 E.10264
G1 X127.985 Y111.924 E.36513
M73 P7 R25
M73 Q7 S25
G1 X131.924 Y111.924 E.10264
G1 X118.076 Y98.076 E.51028
G1 X122.015 Y98.076 E.10264
G1 X131.924 Y107.985 E.36513
G1 X131.924 Y104.046 E.10264
G1 X125.954 Y98.076 E.21998
G1 X129.893 Y98.076 E.10264
G1 X132.112 Y100.295 E.08176
;LAYER_CHANGE
;Z:0.95
;HEIGHT:0.15
;BEFORE_LAYER_CHANGE
G92 E0.0
;0.95


;WIPE_START
G1 F8640
G1 X129.893 Y98.076 E-.72453
G1 X129.74 Y98.076 E-.03547
;WIPE_END
G1 E-.04 F2100
G1 Z.95 F10800
;AFTER_LAYER_CHANGE
;0.95
G1 X132.237 Y98.163
G1 E.8 F2100
M204 S800
;TYPE:Perimeter
G1 F900
G1 X132.237 Y112.237 E.36673
G1 X117.763 Y112.237 E.37715
G1 X117.763 Y97.763 E.37715
G1 X132.237 Y97.763 E.37715
G1 X132.237 Y98.103 E.00886
M204 S1000
G1 X132.655 Y97.345 F10800
M204 S800
;TYPE:External perimeter
G1 F900
G1 X132.655 Y112.655 E.39893
G1 X117.345 Y112.655 E.39893
G1 X117.345 Y97.345 E.39893
G1 X132.595 Y97.345 E.39736
M204 S1000
G1 X132.552 Y97.731 F10800
;WIPE_START
G1 F8640
G1 X132.608 Y100.636 E-.76
;WIPE_END
G1 E-.04 F2100
G1 X120.295 Y97.888 F10800
